svgs/duotone/file-pdf.svg

<svg xmlns="http://www.w3.org/2000/svg" viewBox="0 0 512 512"><!--! Font Awesome Pro 6.6.0 by @fontawesome - https://fontawesome.com License - https://fontawesome.com/license (Commercial License) Copyright 2024 Fonticons, Inc. --><path class="fa-secondary" style="fill:var(--fa-secondary-color,inherit);opacity:var(--fa-secondary-opacity,.4);" d="M0 64C0 28.7 28.7 0 64 0L224 0l0 128c0 17.7 14.3 32 32 32l128 0 0 144-208 0c-35.3 0-64 28.7-64 64l0 144-48 0c-35.3 0-64-28.7-64-64L0 64z"/><path class="fa-primary" style="fill:var(--fa-primary-color,inherit);opacity:var(--fa-primary-opacity,1);" d="M384 160L224 0l0 128c0 17.7 14.3 32 32 32l128 0zM176 352c-8.8 0-16 7.2-16 16l0 80 0 48c0 8.8 7.2 16 16 16s16-7.2 16-16l0-32 16 0c30.9 0 56-25.1 56-56s-25.1-56-56-56l-32 0zm32 80l-16 0 0-48 16 0c13.3 0 24 10.7 24 24s-10.7 24-24 24zm96-80c-8.8 0-16 7.2-16 16l0 128c0 8.8 7.2 16 16 16l32 0c26.5 0 48-21.5 48-48l0-64c0-26.5-21.5-48-48-48l-32 0zm32 128l-16 0 0-96 16 0c8.8 0 16 7.2 16 16l0 64c0 8.8-7.2 16-16 16zm80-112l0 64 0 64c0 8.8 7.2 16 16 16s16-7.2 16-16l0-48 32 0c8.8 0 16-7.2 16-16s-7.2-16-16-16l-32 0 0-32 32 0c8.8 0 16-7.2 16-16s-7.2-16-16-16l-48 0c-8.8 0-16 7.2-16 16z"/></svg>

<svg xmlns="http://www.w3.org/2000/svg" viewBox="0 0 512 512"><!--! Font Awesome Pro 6.4.2 by @fontawesome - https://fontawesome.com License - https://fontawesome.com/license (Commercial License) Copyright 2023 Fonticons, Inc. --><path class="fa-primary" style="fill:var(--fa-primary-color,inherit);opacity:var(--fa-primary-opacity,1);" d="M384 160L224 0V128c0 17.7 14.3 32 32 32H384zM176 352c-8.8 0-16 7.2-16 16v80 48c0 8.8 7.2 16 16 16s16-7.2 16-16V464h16c30.9 0 56-25.1 56-56s-25.1-56-56-56H176zm32 80H192V384h16c13.3 0 24 10.7 24 24s-10.7 24-24 24zm96-80c-8.8 0-16 7.2-16 16V496c0 8.8 7.2 16 16 16h32c26.5 0 48-21.5 48-48V400c0-26.5-21.5-48-48-48H304zm32 128H320V384h16c8.8 0 16 7.2 16 16v64c0 8.8-7.2 16-16 16zm80-112v64 64c0 8.8 7.2 16 16 16s16-7.2 16-16V448h32c8.8 0 16-7.2 16-16s-7.2-16-16-16H448V384h32c8.8 0 16-7.2 16-16s-7.2-16-16-16H432c-8.8 0-16 7.2-16 16z"/><path class="fa-secondary" style="fill:var(--fa-secondary-color,inherit);opacity:var(--fa-secondary-opacity,.4);" d="M0 64C0 28.7 28.7 0 64 0H224V128c0 17.7 14.3 32 32 32H384V304H176c-35.3 0-64 28.7-64 64V512H64c-35.3 0-64-28.7-64-64V64z"/></svg>
